X:1
T:Title
%%score { 1 | 2 }
L:1/8
Q:1/4=100
M:4/4
K:G
V:1 treble nm="Grand Piano"
V:2 bass 
V:1
 [B,D]2 [B,D][B,D] [B,D][B,D][B,D][B,D] | [CE]2 [EG]2 [EG]4 | %2
w: C.~D.~Amstutz * * * * * *||
 [CDF]2 [CDF][CDF] [CDF][CDF][DG][EGA] | [DGB]2 [^CGA]2 [DFA]4 | %4
w: ||
 [F,CD]2 [F,CD][F,D] [G,D][F,CD][K:treble][G,B,D][G,B,D] | [G,CE]2 [CEG]2 [CEG]4 | %6
w: ||
 [CDF]2 [B,Dd][Fc] [GB][EGA][DFA][^CGA] | [DGB]2 [CFA]2 [B,G]4 | %8
w: ||
 [DGB]2 [^CG_B][DG=B] [B,DG]3 [DG] | [CEA][CEG][G,EG][G,CE] [B,D]4 | [B,D]2 [DG]A B2 B2 | %11
w: |||
 BBAG [FA]4 | B2 _B=B G3 G | GGA[DGB] [CGc]4 | [EGc]2 [EGc][EGc] [DGd]3 [EGc] | %15
w: ||||
 [DGB][CFA][B,G][A,DF] [B,DG]4 |] %16
w: |
V:2
 [G,,G,]2 [G,,G,][G,,G,] [G,,G,][G,,G,][G,,G,][G,,G,] | [C,G,]2 [C,C]2 [C,C]4 | %2
 A,,2 A,,A,, A,,A,,B,,C, | D,2 E,2 D,4 | D,2 D,C, B,,A,,G,,G,, | C,2 C,2 C,4 | %6
 A,,2 G,,[A,,A,] [B,,G,]C,D,E, | D,2 D,2 G,,4 | G,2 G,G, G,3 B,, | C,C,C,C, [G,,G,]4 | %10
 [G,,G,]2 [B,,G,][D,F,D][K:treble] [G,D]2 [G,DG]2 | [G,DG][G,DG][K:bass][F,D][E,^CE] [D,D]4 | %12
 [G,DG]2 [G,^CG][G,DG] [G,B,D]3 [G,B,D] | [G,B,D][G,B,D][F,D]=F, E,4 | C,2 C,C, B,,3 C, | %15
 D,D,D,D, G,,4 |] %16

